images_elementary_svg/cmd/lc_donation.svg

<svg height="24" width="24" xmlns="http://www.w3.org/2000/svg" xmlns:xlink="http://www.w3.org/1999/xlink"><linearGradient id="a"><stop offset="0"/><stop offset="1" stop-opacity="0"/></linearGradient><linearGradient id="b" gradientTransform="matrix(.56757 0 0 .4054 -1.622 3.27)" gradientUnits="userSpaceOnUse" x1="40.29" x2="40.29" y1="6.093" y2="41.844"><stop offset="0" stop-color="#fff"/><stop offset=".042" stop-color="#fff" stop-opacity=".235"/><stop offset=".964" stop-color="#fff" stop-opacity=".157"/><stop offset="1" stop-color="#fff" stop-opacity=".392"/></linearGradient><linearGradient id="c" gradientTransform="matrix(.52272 0 0 .4857 -.545 .13)" gradientUnits="userSpaceOnUse" x1="23.25" x2="23.25" y1="-28.809" y2="70.295"><stop offset="0" stop-color="#fafafa"/><stop offset="1" stop-color="#95a3ab"/></linearGradient><linearGradient id="d" gradientTransform="matrix(.52174 0 0 .5 -.522 -1.5)" gradientUnits="userSpaceOnUse" x1="22.5" x2="22.5" y1="19.5" y2="44.625"><stop offset="0" stop-color="#273445"/><stop offset="1" stop-color="#0e141f"/></linearGradient><linearGradient id="e" gradientTransform="matrix(.56222 0 0 .51638 .193 8.91)" gradientUnits="userSpaceOnUse" x1="10" x2="20" y1="-3" y2="12"><stop offset="0" stop-color="#fff"/><stop offset="1" stop-color="#fff" stop-opacity="0"/></linearGradient><linearGradient id="f" gradientTransform="matrix(.04225 0 0 .00618 -3.27 18.735)" gradientUnits="userSpaceOnUse" x1="302.857" x2="302.857" y1="366.648" y2="609.505"><stop offset="0" stop-opacity="0"/><stop offset=".5"/><stop offset="1" stop-opacity="0"/></linearGradient><radialGradient id="g" cx="605.714" cy="486.648" gradientTransform="matrix(-.01446 0 0 .00618 10.513 18.735)" gradientUnits="userSpaceOnUse" r="117.143" xlink:href="#a"/><radialGradient id="h" cx="605.714" cy="486.648" gradientTransform="matrix(.01446 0 0 .00618 13.487 18.735)" gradientUnits="userSpaceOnUse" r="117.143" xlink:href="#a"/><path d="m1.8 21h20.4v1.5h-20.4z" fill="url(#f)" opacity=".15"/><path d="m1.8 21v1.5c-.745.003-1.8-.336-1.8-.75s.83-.75 1.8-.75z" fill="url(#g)" opacity=".15"/><path d="m22.2 21v1.5c.745.003 1.8-.336 1.8-.75s-.83-.75-1.8-.75z" fill="url(#h)" opacity=".15"/><rect fill="url(#c)" height="17" rx="1.533" ry="1.513" width="23" x=".5" y="4.5"/><path d="m0 8h24v3h-24z" fill="url(#d)"/><rect fill="none" height="17" opacity=".5" rx="1.533" ry="1.513" stroke="#667885" stroke-linecap="round" stroke-linejoin="round" width="23" x=".5" y="4.5"/><path d="m2.5 12.5h12v3h-12z" fill="#fafafa" stroke="#95a3ab"/><rect fill="none" height="15" opacity=".5" rx=".5" stroke="url(#b)" stroke-linecap="round" stroke-linejoin="round" width="21" x="1.5" y="5.5"/><path d="m2.76 14 1.044-1.2m-.521 2.4 2.087-2.4m-.522 2.4 2.087-2.4m-.522 2.4 2.087-2.4m-.522 2.4 2.087-2.4m-.522 2.4 2.087-2.4m-.52 2.4 2.086-2.4m-.522 2.4 1.565-1.8" fill="none" opacity=".3" stroke="#95a3ab" stroke-width=".5"/><path d="m2.467 5c-.813 0-1.467.592-1.467 1.328v7.672l22-6.63v-1.042c0-.736-.654-1.328-1.467-1.328z" fill="url(#e)" opacity=".2"/><circle cx="20" cy="19" fill="#fff" opacity=".1" r="1"/><circle cx="20" cy="18" fill="#667885" opacity=".25" r="1"/><circle cx="17" cy="19" fill="#fff" opacity=".1" r="1"/><circle cx="17" cy="18" fill="#667885" opacity=".25" r="1"/></svg>

<svg xmlns="http://www.w3.org/2000/svg" xmlns:xlink="http://www.w3.org/1999/xlink" height="24" width="24" version="1"><defs><linearGradient id="c"><stop offset="0" stop-color="#273445"/><stop offset="1" stop-color="#0e141f"/></linearGradient><linearGradient id="b"><stop offset="0" stop-color="#fafafa"/><stop offset="1" stop-color="#95a3ab"/></linearGradient><linearGradient id="f"><stop offset="0"/><stop offset="1" stop-opacity="0"/></linearGradient><linearGradient id="e"><stop offset="0" stop-opacity="0"/><stop offset=".5"/><stop offset="1" stop-opacity="0"/></linearGradient><linearGradient id="a"><stop offset="0" stop-color="#fff"/><stop offset=".042" stop-color="#fff" stop-opacity=".235"/><stop offset=".964" stop-color="#fff" stop-opacity=".157"/><stop offset="1" stop-color="#fff" stop-opacity=".392"/></linearGradient><linearGradient y2="41.844" x2="40.29" y1="6.093" x1="40.29" gradientTransform="matrix(.56757 0 0 .4054 -1.622 3.27)" gradientUnits="userSpaceOnUse" id="l" xlink:href="#a"/><linearGradient gradientTransform="matrix(.52272 0 0 .4857 -.545 .13)" gradientUnits="userSpaceOnUse" y2="70.295" x2="23.25" y1="-28.809" x1="23.25" id="j" xlink:href="#b"/><linearGradient gradientTransform="matrix(.52174 0 0 .5 -.522 -1.5)" gradientUnits="userSpaceOnUse" y2="44.625" x2="22.5" y1="19.5" x1="22.5" id="k" xlink:href="#c"/><linearGradient gradientTransform="matrix(.56222 0 0 .51638 .193 8.91)" gradientUnits="userSpaceOnUse" y2="12" x2="20" y1="-3" x1="10" id="m" xlink:href="#d"/><linearGradient id="d"><stop offset="0" stop-color="#fff"/><stop offset="1" stop-color="#fff" stop-opacity="0"/></linearGradient><linearGradient gradientTransform="matrix(.04225 0 0 .00618 -3.27 18.735)" gradientUnits="userSpaceOnUse" xlink:href="#e" id="g" y2="609.505" x2="302.857" y1="366.648" x1="302.857"/><radialGradient gradientTransform="matrix(-.01446 0 0 .00618 10.513 18.735)" gradientUnits="userSpaceOnUse" xlink:href="#f" id="h" fy="486.648" fx="605.714" r="117.143" cy="486.648" cx="605.714"/><radialGradient gradientTransform="matrix(.01446 0 0 .00618 13.487 18.735)" gradientUnits="userSpaceOnUse" xlink:href="#f" id="i" fy="486.648" fx="605.714" r="117.143" cy="486.648" cx="605.714"/></defs><path overflow="visible" opacity=".15" fill="url(#g)" d="M1.8 21h20.4v1.5H1.8z"/><path d="M1.8 21v1.5c-.745.003-1.8-.336-1.8-.75S.83 21 1.8 21z" overflow="visible" opacity=".15" fill="url(#h)"/><path d="M22.2 21v1.5c.745.003 1.8-.336 1.8-.75s-.83-.75-1.8-.75z" overflow="visible" opacity=".15" fill="url(#i)"/><rect y="4.5" x=".5" ry="1.513" rx="1.533" height="17" width="23" color="#000" overflow="visible" fill="url(#j)"/><rect ry="0" rx="0" y="8" height="3" width="24" fill="url(#k)"/><rect y="4.5" x=".5" ry="1.513" rx="1.533" height="17" width="23" color="#000" overflow="visible" opacity=".5" fill="none" stroke="#667885" stroke-linecap="round" stroke-linejoin="round"/><path fill="#fafafa" stroke="#95a3ab" d="M2.5 12.5h12v3h-12z"/><rect y="5.5" x="1.5" ry=".5" rx=".5" height="15" width="21" opacity=".5" fill="none" stroke="url(#l)" stroke-linecap="round" stroke-linejoin="round"/><path d="M2.76 14l1.044-1.2M3.283 15.2l2.087-2.4M4.848 15.2l2.087-2.4M6.413 15.2L8.5 12.8M7.978 15.2l2.087-2.4M9.543 15.2l2.087-2.4M11.11 15.2l2.086-2.4M12.674 15.2l1.565-1.8" opacity=".3" fill="none" stroke="#95a3ab" stroke-width=".5"/><path d="M2.467 5C1.654 5 1 5.592 1 6.328V14l22-6.63V6.328C23 5.592 22.346 5 21.533 5z" opacity=".2" fill="url(#m)"/><circle r="1" cy="19" cx="20" opacity=".1" fill="#fff"/><circle r="1" cy="18" cx="20" opacity=".25" fill="#667885"/><circle r="1" cy="19" cx="17" opacity=".1" fill="#fff"/><circle r="1" cy="18" cx="17" opacity=".25" fill="#667885"/></svg>
